!!!!SEGMENT: pl-wn--mus-244_zelenski-wladyslaw--marzenia-dziewczyny.krn
!!!cenid: 18xx:3650
!!!COM: Żeleński, Władysław
!!!COM-rismID: pe41024455
!!!CDT: 1837/07/06-1921/01/23
!!!CNT: Polish
!!!OTL: Marzenia dziewczyny
!!!PDT:
!!!AGN:
!!!SMS-siglum: PL-Wn
!!!SMS-shelfmark: Mus.244
!!!SMS-shelfwork: W
!!!SMS-variant:
!!!SMS-altvar:
!!!NIFC-rismSourceID:
!!!NIFC-rismChildID:
!!!NIFC-islandoraID:
!!!URL-pdf-islandora:
!!!URL-scan: https://polona.pl/item/marzenia-dziewczyny,NjYxODg3OTU/6 @EN{Scan on Polona} @PL{Skany w portalu Polona}
!!!ONB-nifc:
!!!OMD: Alla Mazurka
!!!AIN: 1 piano 1 vox
!!!key: G
**kern	**kern	**dynam	**kern	**text	**dynam
*part2	*part2	*part2	*part1	*part1	*part1
*staff3	*staff2	*	*staff1	*staff1	*
*I"Fortepian	*I"Fortepian	*	*I"Śpiew.	*	*
*Ipiano	*Ipiano	*	*Ivox	*	*
*ICklav	*ICklav	*	*ICvox	*	*
*IGacmp	*IGacmp	*	*IGsolo	*	*
*clefF4	*clefG2	*	*clefG2	*	*
*k[f#]	*k[f#]	*	*k[f#]	*	*
*G:	*G:	*	*G:	*	*
*M3/4	*M3/4	*	*M3/4	*	*
=1	=1	=1	=1	=1	=1
*clefG2	*	*	*	*	*
*	*^	*	*	*	*
*xywh-#2:286,600,2875,606	*xywh-#2:286,600,2875,606	*xywh-#2:286,600,2875,606	*	*xywh-#2:420,165,2705,461	*	*
(<4a/	(>16ee/LL	[<2.cc\	p	2.r	.	.
!	!LO:TX:b:i:t=motto tranquillo	!	!	!	!	!
.	16ff#/	.	.	.	.	.
.	16ee/	.	.	.	.	.
.	16aa/JJ	.	.	.	.	.
4d/	4.ee/	.	.	.	.	.
4g/	.	.	.	.	.	.
.	8ff#/	.	.	.	.	.
=2	=2	=2	=2	=2	=2	=2
4f#/	8.dd/L)	2cc\]	.	2.r	.	.
.	(>16aa/Jk	.	.	.	.	.
4d/	2dd/)	.	.	.	.	.
4fn/	.	[<4b\	.	.	.	.
=3	=3	=3	=3	=3	=3	=3
4e/	(>16cc/LL	2b\_<	.	2.r	.	.
.	16dd/	.	.	.	.	.
.	16cc/	.	.	.	.	.
.	16gg/JJ	.	.	.	.	.
4A/	2cc/)	.	.	.	.	.
4e-X/	.	(>8b\L]	.	.	.	.
.	.	8a\J	.	.	.	.
=4	=4	=4	=4	=4	=4	=4
4d/)	4cc/)	8.g\L	.	2.r	.	.
.	.	(<16e\Jk	.	.	.	.
4r	4d'/ 4f# 4b	2ryy	.	.	.	.
*clefF4	*	*	*	*	*	*
4D\	4c'/) 4f# 4a	.	.	.	.	.
*	*v	*v	*	*	*	*
=5	=5	=5	=5	=5	=5
!	!	!	!LO:TX:a:i:t=con anima	!	!
(<4GG/	8.r	p	8.d/	Że-	.
!	!LO:TX:b:i:t=con anima	!	!	!	!
.	(<16d/	.	16d/	-by	.
4D\)	4B'/) 4g	.	4g/	mi	.
4D\	4B'/ 4g	.	4g/	téż	.
!!LO:LB:g=original
=6	=6	=6	=6	=6	=6
*xywh-#2:286,1536,2774,557	*xywh-#2:286,1536,2774,557	*	*xywh-#2:340,1150,2722,412	*	*
(<4GG/	8A'/L 8f#	.	8f#/	Pan	.
.	8B'/J 8g	.	8g/	Bóg	.
4D\)	4c'/ 4a	.	2a/	dał,	.
4D\	4d'/	.	.	.	.
=7	=7	=7	=7	=7	=7
(<4GG/	8g'/L 8b	.	8b\	By	.
!	!	!LO:HP:b	!	!	!LO:HP:a
.	8d'/J 8a	<	8a\	mnie	<
4D\)	4B'/ 4g	.	4g/	ja-	.
4D\	4d'/ 4a	.	4a/	-ki	.
=8	=8	=8	=8	=8	=8
(<4GG/	8g'/L 8b	.	8b\	gra-	.
.	8cc'/J 8ee	.	8ee\	-jek	.
4D\)	2b\ 2dd	[[	2dd\	chciał,	[[
4D\	.	.	.	.	.
=9	=9	=9	=9	=9	=9
(<2.AA/	4r	.	4.dd\	Gę-	.
.	4c/ 4e 4f#	p	.	.	.
!	!	!	!LO:TX:a:i:t=espreſs	!	!
.	.	.	8cc\	-ślę	.
.	4c/ 4e 4f#	.	8b\	za-	.
.	.	.	8a\	-nim	.
=10	=10	=10	=10	=10	=10
2.BB/)	4r	.	8g/	bym	.
.	.	.	8f#/	no-	.
.	4B/ 4d#X 4f#	.	4.b\	-si-	.
.	4B/ 4d# 4f#	.	.	.	.
.	.	.	8a\	-ła	.
!!LO:LB:g=original
=11	=11	=11	=11	=11	=11
*xywh-#2:254,2426,2771,577	*xywh-#2:254,2426,2771,577	*	*xywh-#2:361,2066,2715,398	*	*
*2\right	*	*	*	*	*
(>2.C#X\	4r	.	8g/	Chle-	.
.	.	.	8f#/	-ba	.
.	4B-X/ 4e 4g	.	4e/	bym	.
.	4B-/ 4e 4g	.	4g/	mu	.
=12	=12	=12	=12	=12	=12
*2\left	*	*	*	*	*
2.D\)	4r	.	8f#/	u-	.
.	.	.	8e/	-pro-	.
.	4A/ 4d 4f#	.	4f#/	-si-	.
.	4A/ 4d 4f#	.	4d/	-ła	.
=13	=13	=13	=13	=13	=13
*	*^	*	*	*	*
*	*	*xywh-#2:254,2426,2771,577	*	*	*	*
4DD/ 4AA	8e/L	4A\	.	8e/	Niech	.
.	8g/	.	.	8g/	by	.
4DD/ 4AA	8f#/	4A\	.	4f#/	je-	.
.	8d/	.	.	.	.	.
4DD/ 4AA	8f#/	4A\	.	4d/	-no	.
.	8a/J	.	.	.	.	.
=14	=14	=14	=14	=14	=14	=14
*rep	*	*	*	*	*	*
.	.	.	.	(8qqe/	.	.
4DD/ 4AA	8e/L	4A\	.	2.a/)	grał.	.
.	8g/J	.	.	.	.	.
4DD/ 4AA	4f#/	4A\	.	.	.	.
4DD/ 4AA	4d/	4A\	.	.	.	.
*Xrep	*	*	*	*	*	*
=15	=15	=15	=15	=15	=15	=15
*rep	*	*	*	*	*	*
4DD/ 4AA	8f#/L	4A\	.	8f#/	Niech-	.
.	8a/	.	.	8a/	-by	.
4DD/ 4AA	8g/	4A\	.	4g/	je-	.
.	8e/	.	.	.	.	.
4DD/ 4AA	8g/	4A\	.	4e/	-no	.
.	8b/J	.	.	.	.	.
*Xrep	*	*	*	*	*	*
!!LO:LB:g=original
=16	=16	=16	=16	=16	=16	=16
*xywh-#2:265,3316,2757,664	*xywh-#2:265,3316,2757,664	*xywh-#2:265,3316,2757,664	*	*xywh-#2:333,2953,2677,388	*	*
*rep	*	*	*	*	*	*
4DD/ 4AA	8a/L	4A\	.	(>8f#/L	grał.	.
.	8e/J	.	.	8a/J	.	.
4DD/ 4AA	4f#/	4A\	.	[<2cc\)	.	.
4DD/ 4AA	4d/	4A\	.	.	.	.
*Xrep	*	*	*	*	*	*
*clefG2	*	*	*	*	*	*
=17	=17	=17	=17	=17	=17	=17
(<4a/	16ee/LL	2.cc\	pp	2.cc;>\]	.	.
!	!LO:TX:b:i:t=riten.	!	!	!	!	!
.	16ff#/	.	.	.	.	.
.	16ee/	.	.	.	.	.
.	16aa/JJ	.	.	.	.	.
4d/	4.ee/	.	.	.	.	.
4a/)	.	.	.	.	.	.
.	8ff#/	.	.	.	.	.
*	*v	*v	*	*	*	*
*clefF4	*	*	*	*	*
=18	=18	=18	=18	=18	=18
!	!LO:TX:b:i:t=a tempo	!	!LO:TX:a:i:t=a tempo	!	!
(<4GG/	8.r	p	8d/	Let-	.
.	.	.	8d/	-nim	.
.	(16d/	.	.	.	.
4D\)	4B'/) 4g	.	4g/	ran-	.
4D\	4B'/ 4g	.	4g/	-kiem	.
=19	=19	=19	=19	=19	=19
(<4GG/	8A/L 8f#	.	8f#/	w_ci-	.
!	!	!	!LO:N:vis=4	!	!
.	8B/J 8g	.	8g/	-chy	.
4D\)	4c/ 4a	.	2a/	wczas	.
4D\	4d/	.	.	.	.
=20	=20	=20	=20	=20	=20
!	!	!	!	!	!LO:HP:a
(<4GG/	8g/L 8b	<	8b\	Po-	<
.	8d/J 8a	.	8a\	-szli-	.
4D\)	4B/ 4g	.	4g\	-byś-	.
4D\	4d/ 4a	.	4a\	-my	.
!!LO:PB:g=original
=21	=21	=21	=21	=21	=21
*xywh-#3:271,1250,5484,1180	*xywh-#3:271,1250,5484,1180	*	*xywh-#3:372,437,5435,859	*	*
(<4GG/	8.g\L 8.b	.	8b\	so-	.
.	.	.	8ee\	-bie	.
.	16cc\Jk 16ee	.	.	.	.
4D\)	2b\ 2dd	[[	2dd\	w_las,	[[
4D\	.	.	.	.	.
=22	=22	=22	=22	=22	=22
!	!	!	!LO:TX:a:i:t=espreſs	!	!
(>2.AA/	4r	.	4.dd\	Gdzie	.
.	4c/ 4e 4g	.	.	.	.
.	.	.	8cc\	stru-	.
.	4c/ 4e 4g	.	8ee\	-my-	.
.	.	.	8cc\	-czek	.
=23	=23	=23	=23	=23	=23
2.D\)	4r	.	8b\	do-	.
.	.	.	8a\	-łem	.
.	4c/ 4f#	.	4.dd\	pły-	.
.	4c/ 4f#	.	.	.	.
.	.	.	8cc\	-nie,	.
=24	=24	=24	=24	=24	=24
2.D#X\	4r	.	8b\	szem-	.
.	.	.	8a\	-rzą	.
.	4B/ 4g	.	4b\	list-	.
.	4B/ 4g	.	4g/	-ki	.
=25	=25	=25	=25	=25	=25
2E\	4r	.	8f#/	na	.
.	.	.	8g/	Ka-	.
.	4B/ 4g	.	4e/	-li-	.
4C#X\	4B-X/ 4e 4g	.	4g/	-nie,	.
!!LO:LB:g=original
=26	=26	=26	=26	=26	=26
*	*^	*	*	*	*
*xywh-#3:207,3061,5554,1166	*xywh-#3:207,3061,5554,1166	*xywh-#3:207,3061,5554,1166	*	*xywh-#3:330,2324,5421,761	*	*
!	!	!	!	!	!	!LO:DY:a
4DD/ 4AA	(8f#/L	4A\	.	8f#/	Musz-	p
.	8a/)	.	.	8a/	-ki	.
4DD/ 4AA	(8g/	4A\	.	4g/	brzę-	.
.	8e/)	.	.	.	.	.
4DD/ 4AA	(8g/	4A\	.	4e/	-czą	.
.	8b/J)	.	.	.	.	.
=27	=27	=27	=27	=27	=27	=27
.	.	.	.	(8qf#/	.	.
4DD/ 4AA	(8a/L	4A\	.	2.a/)	w_raz.	.
.	8e/J)	.	.	.	.	.
4DD/ 4AA	4f#/	4A\	.	.	.	.
4DD/ 4AA	4d/	4A\	.	.	.	.
=28	=28	=28	=28	=28	=28	=28
!	!	!	!LO:HP:t=crescendo	!	!	!LO:HP:a:t=cresc un poco
4DD/ 4AA	(8f#/L	4c\	<	8f#/	Musz-	<
.	8a/)	.	.	8a/	-ki	.
4DD/ 4AA	(8g/	4c\	.	4g/	brzę-	.
.	8e/)	.	.	.	.	.
4DD/ 4AA	(8g/	4c\	.	4e/	-czą	.
.	8b/J)	.	.	.	.	.
*	*v	*v	*	*	*	*
=29	=29	=29	=29	=29	=29
4DD/ 4AA	8.c/L 8.a	.	8f#/	Musz-	.
.	.	.	8cc\	-ki	.
.	(<16e/Jk	.	.	.	.
4r	4d/) 4f#	.	4b\	brzę-	.
4D/	4c/ 4f# 4a	.	4a\	-czą	.
=30	=30	=30	=30	=30	=30
(<4GG/	8.B/L 8.g	.	2g/	w_raz.	.
.	(<16d/Jk	f	.	.	.
4D/)	4B/) 4g	.	.	.	.
4D/	4d/ 4a	.	4r	.	.
!!LO:LB:g=original
=31	=31	=31	=31	=31	=31
*xywh-#3:277,4800,5540,1271	*xywh-#3:277,4800,5540,1271	*	*xywh-#3:323,4119,5442,705	*	*
(<4GG/	8g/L 8b	.	2.r	.	.
.	8d/J 8a	.	.	.	.
4D/)	4B/ 4g	.	.	.	.
4D/	4d/ 4a	.	.	.	.
=32	=32	=32	=32	=32	=32
(<4GG/	8g/L 8b	.	2.r	.	.
.	8d/J 8a	.	.	.	.
4D\)	4B/ 4g	.	.	.	.
4D\	4d/ 4a	.	.	.	.
=33	=33	=33	=33	=33	=33
(<4GG/	8.g\L 8.b	.	2.r	.	.
.	(>16cc\Jk 16ee	.	.	.	.
4D\)	2b\) 2dd	.	.	.	.
4D\	.	.	.	.	.
*clefG2	*	*	*	*	*
=34	=34	=34	=34	=34	=34
*	*^	*	*	*	*
*	*	*xywh-#3:277,4800,5540,1271	*	*	*	*
(<4a/	(>16ee/LL	[2.cc\	p	2.r	.	.
.	16ff#/	.	.	.	.	.
!	!LO:TX:b:i:t=tranquillo	!	!	!	!	!
.	16ee/	.	.	.	.	.
.	16aa'</JJ	.	.	.	.	.
4d/	4.ee/	.	.	.	.	.
4g/	.	.	.	.	.	.
.	8ff#/	.	.	.	.	.
=35	=35	=35	=35	=35	=35	=35
4f#/	8.dd/L)	(2cc\]	.	2.r	.	.
.	(16aa/Jk	.	.	.	.	.
4d/	2dd/)	.	.	.	.	.
4fn/	.	[4b\)	.	.	.	.
!!LO:LB:g=original
=36	=36	=36	=36	=36	=36	=36
*xywh-#3:263,6519,5512,1362	*xywh-#3:263,6519,5512,1362	*xywh-#3:263,6519,5512,1362	*	*xywh-#3:470,5872,5268,894	*	*
4e/	(>16cc/LL	(<2b\_	.	2.r	.	.
.	16dd/	.	.	.	.	.
.	16cc/	.	.	.	.	.
.	16gg/JJ	.	.	.	.	.
4A/	2cc/	.	.	.	.	.
4e-X/	.	8b\L]	.	.	.	.
.	.	(>8a\J	.	.	.	.
=37	=37	=37	=37	=37	=37	=37
!	!LO:TX:a:i:t=a tempo	!	!	!	!	!
4d/)	4cc/))	8.g\L)	.	2.r	.	.
.	.	(16e\Jk	.	.	.	.
4r	4d'/ 4f# 4b	2ryy	.	.	.	.
*clefF4	*	*	*	*	*	*
4D\	4c'/) 4f# 4a	.	.	.	.	.
*	*v	*v	*	*	*	*
=38	=38	=38	=38	=38	=38
!	!	!	!LO:TX:a:i:t=Poco piu lento	!	!
(<8.EE/L	4r	.	2.r	.	.
16BB/Jk	.	.	.	.	.
4E/	(<[>2g/	pp	.	.	.
4BB/	.	.	.	.	.
=39	=39	=39	=39	=39	=39
*	*	*	*2\right	*	*
!	!	!	!LO:TX:a:i:t=dolce	!	!
8.EE/L	4g/]	.	([2.b\	On	.
16BB/Jk	.	.	.	.	.
4E/	8f#/L	.	.	.	.
.	8e/	.	.	.	.
4BB/	8d/	.	.	.	.
.	8c/J	.	.	.	.
=40	=40	=40	=40	=40	=40
*rep	*	*	*	*	*
8.EE/L	8B/L)	.	4b\]	.	.
.	8qd/	.	.	.	.
.	(<8c/J	.	.	.	.
16BB/Jk	.	.	.	.	.
4E/	4B/	.	4a\)	.	.
4BB/)	4e/	.	4g\	by	.
*Xrep	*	*	*	*	*
!!LO:PB:g=original
=41	=41	=41	=41	=41	=41
*xywh-#4:304,598,2732,631	*xywh-#4:304,598,2732,631	*	*xywh-#4:359,262,2784,402	*	*
8.EE/L	8d#/L)	.	(4f#/	so-	.
.	(<8A/	.	.	.	.
16BB/Jk	.	.	.	.	.
4E/	8B/	.	4g/)	.	.
.	8c/	.	.	.	.
4BB/	8B/	.	4d#X/	-bie	.
.	8A/J	.	.	.	.
=42	=42	=42	=42	=42	=42
*rep	*	*	*	*	*
8.EE/L	8G/L	.	2e/	pię-	.
.	8A/J	.	.	.	.
16BB/Jk	.	.	.	.	.
4E/	4.B/	.	.	.	.
4BB/	.	.	4f#/	-knie	.
.	8A/	.	.	.	.
*Xrep	*	*	*	*	*
=43	=43	=43	=43	=43	=43
*rep	*	*	*	*	*
8.EE/L	8G/L)	.	2g/	siadł;	.
.	(<8B/J	.	.	.	.
16BB/Jk	.	.	.	.	.
4E/	4.e/	.	.	.	.
4BB/	.	.	4r	.	.
.	16d/LL	.	.	.	.
.	16c/JJ	.	.	.	.
*Xrep	*	*	*	*	*
=44	=44	=44	=44	=44	=44
*rep	*	*	*	*	*
8.EE/L	8B/)	.	2.r	.	.
.	8r	.	.	.	.
16BB/Jk	.	.	.	.	.
4E/	(<[>2g^>/	.	.	.	.
4BB/	.	.	.	.	.
*Xrep	*	*	*	*	*
=45	=45	=45	=45	=45	=45
*rep	*	*	*2\left	*	*
8.EE/L	4g/]	.	(>[>2.b\	Gdzie	.
16BB/Jk	.	.	.	.	.
4E/	8f#/L	.	.	.	.
.	8e/	.	.	.	.
4BB/	8d/	.	.	.	.
.	8c/J	.	.	.	.
*Xrep	*	*	*	*	*
!!LO:LB:g=original
=46	=46	=46	=46	=46	=46
*xywh-#4:328,1556,2666,541	*xywh-#4:328,1556,2666,541	*	*xywh-#4:363,1154,2680,378	*	*
*rep	*	*	*	*	*
8.EE/L	8B/L)	.	4b\]	.	.
.	8qd/	.	.	.	.
.	(8c/J	.	.	.	.
16BB/Jk	.	.	.	.	.
4E/	4B/	.	4a\)	.	.
4BB/	4e/	.	4g\	cień	.
*Xrep	*	*	*	*	*
=47	=47	=47	=47	=47	=47
*rep	*	*	*	*	*
8.EE/L	8d#X/L)	.	(4f#/	chło-	.
.	(<8A/	.	.	.	.
16BB/Jk	.	.	.	.	.
4E/	8B/	.	4g/)	.	.
.	8c/	.	.	.	.
4BB/	8B/	.	4d#X/	-dną	.
.	8A/J	.	.	.	.
*Xrep	*	*	*	*	*
=48	=48	=48	=48	=48	=48
*rep	*	*	*	*	*
8.EE/L	8G/L	.	2e/	smu-	.
.	8B/J	.	.	.	.
16BB/Jk	.	.	.	.	.
4E/	4.e/	.	.	.	.
4BB/	.	.	4f#/	-gą	.
.	16d/LL	.	.	.	.
.	16c/JJ	.	.	.	.
*Xrep	*	*	*	*	*
=49	=49	=49	=49	=49	=49
(<8.EE/L	8B/L)	.	2g/	padł	.
.	8qd/	.	.	.	.
.	(<(<8c/J	.	.	.	.
16BB/Jk	.	.	.	.	.
4E/)	4B/)	.	.	.	.
4r	[<4e/	.	4r	.	.
=50	=50	=50	=50	=50	=50
*	*^	*	*	*	*
*	*	*xywh-#4:328,1556,2666,541	*	*	*	*
!	!LO:TX:b:i:t=espreſs	!	!	!	!	!
(>8.C\L	(>4.e/])	2ryy	.	4r	.	.
16G\Jk	.	.	.	.	.	.
!	!	!	!	!LO:TX:a:i:t=espreſs	!	!
4c\	.	.	.	4ee\	Grał-	.
.	8d#X/	.	.	.	.	.
4G\)	4cc/	8e\L	.	4cc\	-by	.
.	.	8f#\J	.	.	.	.
!!LO:LB:g=original
=51	=51	=51	=51	=51	=51	=51
*xywh-#4:339,2410,2642,635	*xywh-#4:339,2410,2642,635	*xywh-#4:339,2410,2642,635	*	*xywh-#4:338,2057,2649,385	*	*
(>8.GG\L	2cc/)	(<8.g\L	.	2b\	ja-	.
16D\Jk	.	16f#\Jk	.	.	.	.
4G\)	.	4g\	.	.	.	.
4D\	4ryy	4d\)	.	4b\	-ką	.
*	*v	*v	*	*	*	*
=52	=52	=52	=52	=52	=52
(>8.AA\L	(>8.c#X\L	.	(4b\	piosn-	.
16E\Jk	16e\Jk	.	.	.	.
4G\	4B\	.	4a\)	.	.
4E\)	4c#'\) 4g	.	4g\	-kę	.
=53	=53	=53	=53	=53	=53
!LO:N:vis=8	!	!	!	!	!
(8.D\L	(<8d'/L 8f#	.	8f#/L	smu-	.
.	8e'/ 8g	.	8g/J	.	.
16AA\Jk	.	.	.	.	.
4DD/)	8f#'/) 8a	.	2a\	-tną	.
.	(<8g/	.	.	.	.
4r	8a/	.	.	.	.
.	8b/J)	.	.	.	.
=54	=54	=54	=54	=54	=54
*	*^	*	*	*	*
*	*	*xywh-#4:339,2410,2642,635	*	*	*	*
(>8.AA\L	4ryy	(>8cc\L	.	4r	.	.
.	.	8dd\	.	.	.	.
16E\Jk	.	.	.	.	.	.
4A\	4ee/	8cc\	.	4ee\	Wol-	.
.	.	8b\	.	.	.	.
4E\)	4cc/	8a\	.	4cc\	-niu-	.
.	.	8g\J)	.	.	.	.
*	*v	*v	*	*	*	*
=55	=55	=55	=55	=55	=55
(>8.D\L	(<8.f#/L	.	2b\	-sień-	.
16A\Jk	16d/Jk	.	.	.	.
2c\)	4e/ 4b	.	.	.	.
.	4f#'/) 4a	.	4a\	-ką	.
!!LO:LB:g=original
=56	=56	=56	=56	=56	=56
*xywh-#4:266,3334,2708,628	*xywh-#4:266,3334,2708,628	*	*xywh-#4:373,2991,2614,378	*	*
(>4E\	(<8.g/L	.	4r	.	.
.	16e/Jk	.	.	.	.
4G\	4B/	.	4g/	ba-	.
4AA\)	4G'/) 4c#X	.	4e/	-ła-	.
=57	=57	=57	=57	=57	=57
(>8.DD\L	8F#</L 8d	.	8f#/L	-mu-	.
.	8A</	.	8e/J	.	.
16AA\Jk	.	.	.	.	.
2D\)	8F#</	.	2d/	-tną	.
.	8A</	.	.	.	.
.	8d/	.	.	.	.
.	8e/J	.	.	.	.
=58	=58	=58	=58	=58	=58
*rep	*	*	*	*	*
(8.DD\L	8.f#/L	pp	2.r	.	.
!	!LO:TX:b:i:t=poco striñgendo	!	!	!	!
16AA\Jk	(16e/Jk 16a	.	.	.	.
2D\)	4d/) 4f#	.	.	.	.
.	4A/ 4e	.	.	.	.
*Xrep	*	*	*	*	*
=59	=59	=59	=59	=59	=59
*rep	*	*	*	*	*
(8.DD\L	8.d/L 8.f#	.	4r	.	.
16AA\Jk	(16e/Jk 16a	.	.	.	.
2D\)	4d/) 4f#	.	4r	.	.
!	!	!	!	!	!LO:DY:a
.	4A'/ 4e	.	4a/	A	p
*Xrep	*	*	*	*	*
=60	=60	=60	=60	=60	=60
*rep	*	*	*	*	*
(8.DD\L	8.d/L 8.f#	.	[>2.a/	wiatr	.
16AA\Jk	(16e/Jk 16a	.	.	.	.
2D\)	4d/) 4f#	.	.	.	.
.	4A'/ 4e	.	.	.	.
*Xrep	*	*	*	*	*
!!LO:PB:g=original
=61	=61	=61	=61	=61	=61
*xywh-#5:482,1268,5292,1148	*xywh-#5:482,1268,5292,1148	*	*xywh-#5:561,493,5112,783	*	*
8.DD\L	8.d/L 8.f#	.	4a'>/]	.	.
!	!LO:TX:b:t=crescendo:ext=c::problem=dynamics with extention lines&colon;wavy line	!LO:HP:t=crescendo:ext=c	!	!	!
16AA\Jk	(16e/Jk 16a	<	.	.	.
!	!	!	!	!	!LO:HP:a
2D\	4d/) 4f#	.	4a/	by	<
.	4A/ 4e	.	4b\	ją	[[
=62	=62	=62	=62	=62	=62
*rep	*	*	*	*	*
8.DD\L	8.d/L 8.f#	.	2cc\	kradł	.
16AA\Jk	(16g/Jk 16cc	.	.	.	.
2D\	4f#/) 4a	.	.	.	.
.	4c#X'/ 4g	.	4r	.	.
*Xrep	*	*	*	*	*
=63	=63	=63	=63	=63	=63
*rep	*	*	*	*	*
8.DD\L	8.d/L 8.f#	.	4r	.	.
16AA\Jk	(16g/Jk 16cc	.	.	.	.
2D\	4f#/) 4a	.	4r	.	.
!	!	!	!	!	!LO:DY:a
.	4c#X'/ 4g	.	4ee\	A	p
*Xrep	*	*	*	*	*
=64	=64	=64	=64	=64	=64
*	*^	*	*	*	*
*	*	*xywh-#5:482,1268,5292,1148	*	*	*	*
*rep	*	*	*	*2\right	*	*
!	!	!	!	!	!	!LO:HP:a
8.DD\L	8.d/L 8.f#	2ryy	.	[2.ee\	wiatr	<
16AA\Jk	(16b/Jk 16ee	.	.	.	.	.
2D\	4a/) 4cc	.	.	.	.	.
.	(>4b/	8d\L	.	.	.	.
.	.	8g\J	.	.	.	.
*Xrep	*	*	*	*	*	*
=65	=65	=65	=65	=65	=65	=65
*rep	*	*	*	*	*	*
8.DD\L	8.f#/L) 8.a	2ryy	.	4ee\]	.	.
16AA\Jk	(<16b/Jk 16ee	.	.	.	.	[
!	!	!	!	!	!	!LO:HP:a
2D\	4a/) 4cc	.	.	4cc\	by	>
.	(>4b/	8d\L	.	4b\	ją	]]
.	.	8g\J	.	.	.	.
*Xrep	*	*	*	*	*	*
!!LO:LB:g=original
=66	=66	=66	=66	=66	=66	=66
*xywh-#5:509,3085,5180,1128	*xywh-#5:509,3085,5180,1128	*xywh-#5:509,3085,5180,1128	*	*xywh-#5:580,2338,5239,765	*	*
8.DD\L	8.f#/L) 8.a	2ryy	.	2a/	Kradł	.
16AA\Jk	(<16b/Jk 16ee	.	.	.	.	.
*2\right	*	*	*	*	*	*
[>2D\	4a/) 4cc	.	.	.	.	.
.	(>4b/	8d\L	.	4r	.	.
.	.	8g\J	.	.	.	.
=67	=67	=67	=67	=67	=67	=67
4D\]	4a/)	8f#\L	.	2.r	.	.
.	.	8e\J	.	.	.	.
4r	4f#/	8d\L	.	.	.	.
.	.	8c\	.	.	.	.
4DD/	4d/	8B\	.	.	.	.
.	.	8A\J	.	.	.	.
*	*v	*v	*	*	*	*
=68	=68	=68	=68	=68	=68
!	!	!	!	!	!LO:DY:a
(<4GG/	8.r	[	8d/	Choć-	f
.	.	.	8d/	-by	.
.	(<16d/	f	.	.	.
4D\)	4B/) 4g	.	4g/	mi	.
4D\	4B/ 4g	.	4g/	Król	.
=69	=69	=69	=69	=69	=69
*rep	*	*	*	*	*
(4GG/	8A/L 8f#	.	8f#/	rzek-	.
.	8B/J 8g	.	8g/	-nął	.
4D\)	4c/ 4a	.	4.a/	sam	.
4D\	4d/	.	.	.	.
.	.	.	8a/	Kró-	.
*Xrep	*	*	*	*	*
=70	=70	=70	=70	=70	=70
*rep	*	*	*	*	*
(4GG/	8g/L 8b	.	8b/	-les-	.
.	8d/J 8a	.	8a/	-two	.
4D\)	4B/ 4g	.	(<4g/	ci,	.
4D\	4d/ 4a	.	4a/)	.	.
*Xrep	*	*	*	*	*
!!LO:LB:g=original
=71	=71	=71	=71	=71	=71
*xywh-#5:474,4895,5257,1169	*xywh-#5:474,4895,5257,1169	*	*xywh-#5:625,4131,5055,765	*	*
(<4GG/	8g/L 8b	.	8b\	mo-	.
.	8cc/J 8ee	.	8ee\	-je	.
*	*	*	*2\left	*	*
4D\)	2b\ 2dd	.	2dd\	dam	.
4D\	.	.	.	.	.
=72	=72	=72	=72	=72	=72
!	!	!	!LO:TX:a:i:t=espreſs	!	!
(<2.AA/	4r	p	4.dd\	Ja	.
.	4c/ 4e 4f#	.	.	.	.
.	.	.	8cc\	bym	.
.	4c/ 4e 4f#	.	8b\	in-	.
.	.	.	8a\	-o	.
=73	=73	=73	=73	=73	=73
2.BB/)	4r	.	8g/	się	.
.	.	.	8f#/	roz-	.
.	4B/ 4d#X 4f#	.	4.b\	-śmia-	.
.	4B/ 4d# 4f#	.	.	.	.
.	.	.	8a\	-ła	.
=74	=74	=74	=74	=74	=74
*2\left	*	*	*	*	*
(>2.C#X\	4r	.	8g/	Wszyst-	.
.	.	.	8f#/	-kim	.
.	4B-X/ 4e 4g	.	4e/	świę-	.
.	4B-/ 4e 4g	.	4g/	-tym	.
=75	=75	=75	=75	=75	=75
2.D\)	4r	.	8f#/	dzię-	.
.	.	.	8e/	-ko-	.
.	4A/ 4d 4f#	.	4f#/	-wa-	.
.	4A/ 4d 4f#	.	4d/	-ła	.
!!LO:LB:g=original
=76	=76	=76	=76	=76	=76
*	*^	*	*	*	*
*xywh-#5:502,6726,5222,1225	*xywh-#5:502,6726,5222,1225	*xywh-#5:502,6726,5222,1225	*	*xywh-#5:611,5941,5013,814	*	*
4DD/ 4AA	8e/L	4A\	p	8e/	Że	.
.	8g/	.	.	8g/	se	.
4DD/ 4AA	8f#/	4A\	.	4f#/	graj-	.
.	8d/	.	.	.	.	.
4DD/ 4AA	8f#/	4A\	.	4d/	-ka	.
.	8a/J	.	.	.	.	.
=77	=77	=77	=77	=77	=77	=77
*rep	*	*	*	*	*	*
.	.	.	.	(8qe/	.	.
4DD/ 4AA	8e/L	4A\	.	2.a/)	mam.	.
.	8g/J	.	.	.	.	.
4DD/ 4AA	4f#/	4A\	.	.	.	.
4DD/ 4AA	4d/	4A\	.	.	.	.
*Xrep	*	*	*	*	*	*
=78	=78	=78	=78	=78	=78	=78
*rep	*	*	*	*	*	*
4DD/ 4AA	8f#/L	4A\	.	8f#/	Że	.
!	!	!	!	!	!	!LO:HP:a
.	8a/	.	<	8a/	se	<
4DD/ 4AA	8g/	4A\	.	4g/	graj-	.
.	8e/	.	.	.	.	.
4DD/ 4AA	8g/	4A\	.	4e/	-ka	.
.	8b/J	.	.	.	.	.
*Xrep	*	*	*	*	*	*
=79	=79	=79	=79	=79	=79	=79
*repy	*	*	*	*	*	*
!LO:TX:t=P:problem=brak znaku powtórzenia	!	!	!	!	!	!
4DD/yy 4AAyy	8a/L	4A\	.	8f#/L	mam.	.
.	8e/J	.	.	8a/J	.	.
4DD/yy 4AAyy	4f#/	4A\	.	2cc\	.	[[
4DD/yy 4AAyy	4d/	4A\	[	.	.	.
*Xrep	*	*	*	*	*	*
*	*v	*v	*	*	*	*
=80	=80	=80	=80	=80	=80
!	!LO:TX:b:i:t=con espreſs	!	!LO:TX:a:i:t=con espreſs	!	!
(<4GG/	4.g/ 4.b	.	4.b\	Ja	.
4D\)	.	.	.	.	.
.	8d/ 8a	.	8a\	bym	.
4D\	8B/L 8g	.	8g\	i-	.
.	8d/J 8a	.	8a\	-no	.
!!LO:PB:g=original
=81	=81	=81	=81	=81	=81
*xywh-#6:268,605,2724,592	*xywh-#6:268,605,2724,592	*	*xywh-#6:328,198,2633,426	*	*
(<4GG/	8g/L 8b	.	8b\	się	.
.	8a/J 8cc	.	8cc\	roz-	.
4D\)	4.b\ 4.dd	.	4.dd\	-śmia-	.
4D\	.	.	.	.	.
.	8a\ 8cc	.	8cc\	-ła	.
=82	=82	=82	=82	=82	=82
*rep	*	*	*	*	*
(<4GG/	8g/L 8b	.	8b\	WszysT-	.
.	8d/J 8a	.	8a\	-kim	.
4D\)	4B/ 4g	.	4g\	świę-	.
4D\	4d/ 4a	.	4a\	-tym	.
*Xrep	*	*	*	*	*
=83	=83	=83	=83	=83	=83
*rep	*	*	*	*	*
(<4GG/	8g/L 8b	.	8b\	dzię-	.
.	8d/J 8a	.	8dd\	-Ko-	.
4D\)	2B/ 2g	.	4.gg\	-wa-	.
4D\	.	.	.	.	.
.	.	.	8dd\	-ła	.
*Xrep	*	*	*	*	*
=84	=84	=84	=84	=84	=84
*	*^	*	*	*	*
*	*	*xywh-#6:268,605,2724,592	*	*	*	*
4DD/ 4AA	8f#/L	4A\	p	8cc\	Że	.
!	!LO:TX:b:i:t=con anima	!	!	!LO:TX:a:i:t=con anima	!	!
.	8a/	.	.	8ee\	se	.
4DD/ 4AA	8f#/	4A\	.	4cc\	graj-	.
.	8d/	.	.	.	.	.
4DD/ 4AA	8e/	4A\	.	4b\	-ka	.
.	8g/J	.	.	.	.	.
=85	=85	=85	=85	=85	=85	=85
*rep	*	*	*	*2\right	*	*
4DD/ 4AA	8f#/L	4A\	.	2a\	mam	.
.	8a/J	.	.	.	.	.
4DD/ 4AA	4f#/	4A\	.	.	.	.
4DD/ 4AA	4d/	4A\	.	4r	.	.
*Xrep	*	*	*	*	*	*
!!LO:LB:g=original
=86	=86	=86	=86	=86	=86	=86
*xywh-#6:231,1521,2747,575	*xywh-#6:231,1521,2747,575	*xywh-#6:231,1521,2747,575	*	*xywh-#6:290,1156,2678,385	*	*
*rep	*	*	*	*	*	*
4DD/ 4AA	8f#/L	4A\	.	8cc\	Że	.
!	!	!	!	!	!	!LO:HP:a
.	8a/	.	.	8ee\	se	<
4DD/ 4AA	8f#/	4A\	<	4cc\	graj-	.
.	8d/	.	.	.	.	.
4DD/ 4AA	8e/	4A\	.	4b\	-Ka	.
.	8g/J	.	.	.	.	.
*Xrep	*	*	*	*	*	*
=87	=87	=87	=87	=87	=87	=87
*rep	*	*	*	*2\left	*	*
4DD/ 4AA	8f#/L	4A\	.	2a\	mam	.
.	8a/J	.	.	.	.	.
4DD/ 4AA	4f#/	4A\	.	.	.	.
4DD/ 4AA	4d/	4A\	[	4r	.	[
*Xrep	*	*	*	*	*	*
=88	=88	=88	=88	=88	=88	=88
*rep	*	*	*	*	*	*
4DD/ 4AA	8f#/L	4A\	.	2.r	.	.
.	8a/	.	.	.	.	.
4DD/ 4AA	8f#/	4A\	.	.	.	.
.	8d/	.	.	.	.	.
4DD/ 4AA	8e/	4A\	.	.	.	.
.	8g/J	.	.	.	.	.
*Xrep	*	*	*	*	*	*
=89	=89	=89	=89	=89	=89	=89
*rep	*	*	*	*	*	*
!	!	!LO:TX:b:t=crescendo_:ext=u:problem=dynamics with extention lines	!LO:HP:t=crescendo_:ext=u	!	!	!
4DD/ 4AA	8f#/L	4A\	<	4r	.	.
.	8a/	.	.	.	.	.
!	!	!	!	!	!	!LO:DY:a
4DD/ 4AA	8f#/	4A\	.	4ee\	Że	f
.	8d/	.	.	.	.	.
4DD/ 4AA	8e/	4A\	.	4ee\	se	.
.	8g/J	.	.	.	.	.
*Xrep	*	*	*	*	*	*
=90	=90	=90	=90	=90	=90	=90
*rep	*	*	*	*2\right	*	*
4DD/ 4AA	8f#/L	4c\	.	[>2.dd\	graj-	.
.	8a/	.	.	.	.	.
4DD/ 4AA	8g/	4c\	.	.	.	.
.	8e/	.	.	.	.	.
4DD/ 4AA	8f#/	4c\	.	.	.	.
.	8a/J	.	.	.	.	.
*Xrep	*	*	*	*	*	*
!!LO:LB:g=original
=91	=91	=91	=91	=91	=91	=91
*	*	*	*	*^	*	*
*xywh-#6:231,2409,2747,610	*xywh-#6:231,2409,2747,610	*xywh-#6:231,2409,2747,610	*xywh-#6:231,2409,2747,610	*	*xywh-#6:318,2041,2626,374	*	*
*rep	*	*	*	*	*	*	*
4DD/ 4AA	8g/L	4c\	.	(4dd/]	4dd\	.	.
.	8e/	.	.	.	.	.	.
4DD/ 4AA	8f#/	4c\	.	4.ee/)	4cc\	.	.
.	8a/	.	.	.	.	.	.
4DD/ 4AA	8f#/	4c\	.	.	4a\	.	.
.	8d/J	.	[	8dd/	.	-ka	.
*Xrep	*	*	*	*	*	*	*
*	*v	*v	*	*	*	*	*
=92	=92	=92	=92	=92	=92	=92
*	*	*	*	*2\left	*	*
(<4GG/	8.B/L 8.g	f	2gg/	2g\	mam.	.
.	(<16d/Jk	.	.	.	.	.
4D\)	4B/) 4g	.	.	.	.	.
4D\	4d'/ 4a	.	4r	4ryy	.	.
*	*	*	*v	*v	*	*
=93	=93	=93	=93	=93	=93
*rep	*	*	*	*	*
(<4GG/	8g'/L 8b	.	2.r	.	.
.	8d'/J 8a	.	.	.	.
4D\)	4B'/ 4g	.	.	.	.
4D\	4d'/ 4a	.	.	.	.
*Xrep	*	*	*	*	*
=94	=94	=94	=94	=94	=94
*rep	*	*	*	*	*
(<4GG/	8g'/L 8b	.	2.r	.	.
.	8d'/J 8a	.	.	.	.
4D\)	4B'/ 4g	.	.	.	.
4D\	4d'/ 4a	.	.	.	.
*Xrep	*	*	*	*	*
=95	=95	=95	=95	=95	=95
*rep	*	*	*	*	*
(<4GG/	8.g/L 8.b	.	2.r	.	.
.	(>16cc/Jk 16ee	.	.	.	.
4D\)	2b\) 2dd	.	.	.	.
4D\	.	.	.	.	.
*Xrep	*	*	*	*	*
*clefG2	*	*	*	*	*
!!LO:LB:g=original
=96	=96	=96	=96	=96	=96
*	*^	*	*	*	*
*xywh-#6:217,3252,2845,787	*xywh-#6:217,3252,2845,787	*xywh-#6:217,3252,2845,787	*	*xywh-#6:300,2960,2671,315	*	*
!	!LO:TX:b:i:t=dolce e tranquillo	!	!	!	!	!
(<4a/	(>16ee/LL	[<2.cc\	.	2.r	.	.
.	16ff#/	.	.	.	.	.
.	16ee/	.	.	.	.	.
.	16aa/JJ	.	.	.	.	.
4d/	4.ee/	.	.	.	.	.
4g/	.	.	.	.	.	.
.	8ff#/	.	.	.	.	.
=97	=97	=97	=97	=97	=97	=97
4f#/	8.dd/L)	2cc\]	.	2.ryy	.	.
.	16aa/Jk	.	.	.	.	.
4d/	2dd/	.	.	.	.	.
4fn/)	.	[<4b\	.	.	.	.
=98	=98	=98	=98	=98	=98	=98
(<4e/	16cc/LL	2b\_<	.	2.ryy	.	.
.	16dd/	.	.	.	.	.
.	16cc/	.	.	.	.	.
.	16gg/JJ	.	.	.	.	.
4A/	[>2cc/	.	.	.	.	.
4e-X/	.	8b\L]	.	.	.	.
.	.	8a\J	.	.	.	.
=99	=99	=99	=99	=99	=99	=99
4d/)	4cc/]	8.g\L	.	2.ryy	.	.
.	.	&(>16e\Jk	.	.	.	.
4r	(4d'/ 4f# 4b&)	2ryy	.	.	.	.
*clefF4	*	*	*	*	*	*
4D\	4c/) 4f# 4a	.	.	.	.	.
*	*v	*v	*	*	*	*
=100	=100	=100	=100	=100	=100
2GG/	2.B;>/ 2.g	.	2.ryy	.	.
4ryy	.	.	.	.	.
==	==	==	==	==	==
*-	*-	*-	*-	*-	*-
!!!system-decoration: s1{(s2,s3)}
!!!RDF**kern: < = below
!!!RDF**kern: > = above
!!!ENC: Filip Voros
!!!END: 2022-02-16
!!!ENC: Marta Chmielewska
!!!END: 2022-02-18
!!!ENC-iiif: Antoni Szymański
!!!END-iiif: 2022-09-04
!!!YEC: Copyright 2022 Narodowy Instytut Fryderyka Chopina (https://polishscores.org)
!!!YEM: License CC-BY-4.0 (https://creativecommons.org/licenses/by/4.0)
!!!IIIF: https://polona.pl/iiif/item/NjYxODg3OTU/manifest.json
